svg/webrtc.svg

<svg xmlns="http://www.w3.org/2000/svg" viewBox="0 0 24 24"><path d="M12 2c2.44 0 4.5 1.75 4.91 4.07l.84-.07c2.75 0 5 2.24 5 5a5 5 0 0 1-2.59 4.38 5.015 5.015 0 0 1-4.41 7.37A5 5 0 0 1 12 21.06a5 5 0 0 1-3.75 1.69c-2.75 0-5-2.25-5-5 0-.86.22-1.66.59-2.37A5 5 0 0 1 1.25 11c0-2.76 2.25-5 5-5l.84.07C7.5 3.75 9.56 2 12 2M6.75 20.25 13.66 17H17c.55 0 1-.45 1-1V9c0-.55-.45-1-1-1H7c-.55 0-1 .45-1 1v7c0 .55.45 1 1 1h.77z"/></svg>

<?xml version="1.0" encoding="UTF-8"?><!DOCTYPE svg PUBLIC "-//W3C//DTD SVG 1.1//EN" "http://www.w3.org/Graphics/SVG/1.1/DTD/svg11.dtd"><svg xmlns="http://www.w3.org/2000/svg" xmlns:xlink="http://www.w3.org/1999/xlink" version="1.1" id="mdi-webrtc" width="24" height="24" viewBox="0 0 24 24"><path d="M12 2C14.44 2 16.5 3.75 16.91 6.07L17.75 6C20.5 6 22.75 8.24 22.75 11C22.75 12.89 21.7 14.53 20.16 15.38C20.54 16.09 20.75 16.89 20.75 17.75C20.75 20.5 18.5 22.75 15.75 22.75C14.26 22.75 12.92 22.1 12 21.06C11.08 22.1 9.74 22.75 8.25 22.75C5.5 22.75 3.25 20.5 3.25 17.75C3.25 16.89 3.47 16.09 3.84 15.38C2.3 14.53 1.25 12.89 1.25 11C1.25 8.24 3.5 6 6.25 6L7.09 6.07C7.5 3.75 9.56 2 12 2M6.75 20.25L13.66 17H17C17.55 17 18 16.55 18 16V9C18 8.45 17.55 8 17 8H7C6.45 8 6 8.45 6 9V16C6 16.55 6.45 17 7 17H7.77L6.75 20.25Z" /></svg>
